X: 2652
T: Banish Misfortune
R: jig
M: 6/8
K: Dmixolydian
|:fed cAG|A2d cAG|F2F D2D|F2G AGF|
G2A cAG|AGA cde|fed cAG|Add d3:|
|:f2d d^cd|f2g agf|e2c cBc|e2f gfe|
f2g agf|e2f gfe|fed cAG|Add d3:|
|:f2g e2f|d2e c2d|ABA GAG|FGF FED|
c3 cAG|AGA cde|fed cAG|Add d3:|

